tools/download-figma-icons/icons/outlined-medium/coin.svg

<svg width="24" height="24" viewBox="0 0 24 24" fill="none" xmlns="http://www.w3.org/2000/svg">
<path fill-rule="evenodd" clip-rule="evenodd" d="M1.5 12C1.5 17.79 6.21 22.5 12 22.5C17.79 22.5 22.5 17.79 22.5 12C22.5 6.21 17.79 1.5 12 1.5C6.21 1.5 1.5 6.21 1.5 12ZM0 12C0 5.3835 5.3835 0 12 0C18.6165 0 24 5.3835 24 12C24 18.6165 18.6165 24 12 24C5.3835 24 0 18.6165 0 12ZM13.552 16.2864C13.891 16.1664 14.227 15.9834 14.554 15.7427C14.887 15.4944 15.358 15.5679 15.6025 15.8994C15.85 16.2324 15.7787 16.7019 15.4457 16.9479C14.9995 17.2787 14.5307 17.5314 14.0515 17.7002C13.4747 17.9049 12.8837 18.0047 12.3002 18.0047C10.8415 18.0047 9.42323 17.3829 8.35674 16.2189C7.82423 15.6384 7.42523 14.9672 7.15899 14.2502H6.00023C5.58548 14.2502 5.25023 13.9142 5.25023 13.5002C5.25023 13.0854 5.58548 12.7502 6.00023 12.7502H6.80573C6.74798 12.2522 6.74798 11.7482 6.80499 11.2502H6.00023C5.58548 11.2502 5.25023 10.9149 5.25023 10.5002C5.25023 10.0854 5.58548 9.75019 6.00023 9.75019H7.15823C7.42449 9.03319 7.82423 8.36044 8.35674 7.77994C10.246 5.71894 13.2257 5.40994 15.4442 7.04044C15.778 7.28644 15.85 7.75594 15.604 8.08969C15.358 8.42344 14.8892 8.49394 14.5555 8.24944C12.9655 7.07944 10.8235 7.30894 9.46299 8.79319C9.19674 9.08344 8.99124 9.41044 8.81273 9.75019H11.2502C11.6642 9.75019 12.0002 10.0854 12.0002 10.5002C12.0002 10.9149 11.6642 11.2502 11.2502 11.2502H8.31324C8.23674 11.7467 8.23674 12.2537 8.31324 12.7502H11.2502C11.6642 12.7502 12.0002 13.0854 12.0002 13.5002C12.0002 13.9142 11.6642 14.2502 11.2502 14.2502H8.81349C8.99199 14.5892 9.19748 14.9154 9.46299 15.2049C10.5422 16.3832 12.1105 16.7949 13.552 16.2864Z" fill="black"/>
</svg>

<svg width="24" height="24" viewBox="0 0 24 24" fill="none" xmlns="http://www.w3.org/2000/svg"><path fill-rule="evenodd" clip-rule="evenodd" d="M1.5 12c0 5.79 4.71 10.5 10.5 10.5S22.5 17.79 22.5 12 17.79 1.5 12 1.5 1.5 6.21 1.5 12ZM0 12C0 5.383 5.383 0 12 0c6.616 0 12 5.383 12 12 0 6.616-5.384 12-12 12-6.617 0-12-5.384-12-12Zm13.552 4.286a3.91 3.91 0 0 0 1.002-.543.749.749 0 1 1 .892 1.205 5.23 5.23 0 0 1-3.146 1.057c-1.458 0-2.877-.622-3.943-1.786a5.987 5.987 0 0 1-1.198-1.969H6a.75.75 0 1 1 0-1.5h.806a6.557 6.557 0 0 1-.001-1.5H6a.75.75 0 1 1 0-1.5h1.158a5.996 5.996 0 0 1 1.199-1.97c1.889-2.061 4.869-2.37 7.087-.74a.75.75 0 0 1-.889 1.21c-1.59-1.17-3.732-.941-5.092.543a4.44 4.44 0 0 0-.65.957h2.437a.75.75 0 1 1 0 1.5H8.313a4.93 4.93 0 0 0 0 1.5h2.937a.75.75 0 1 1 0 1.5H8.813c.179.34.384.665.65.955 1.08 1.178 2.648 1.59 4.089 1.081Z" fill="currentColor"/></svg>
